X:1
T:Title
%%score { 1 | 2 }
L:1/8
Q:1/4=108
M:3/4
K:G
V:1 treble nm="Grand Piano"
V:2 bass 
V:1
 [B,D]2 [B,D]2 [B,D]2 | [CE]2 [EG]2 [EG]2 | [DB]4 [CA]2 | [B,G]6 | G2 A2 B2 | [Ec]2 [EB]2 [EA]2 | %6
w: Wm.~J.~Kirkpatrick * *||||||
 [DG]4 [DB]2 | [DA]6 | [Fc]2 [Fc]2 [Fc]2 | [Fc]2 B2 A2 | B4 c2 | d6 | [G,DG]2 [G,DF]2 [G,CE]2 | %13
w: |||||||
 [G,B,D]2 [B,DG]2 [DB]2 | [DB]4 [CA]2 | [B,G]4 z2 | [Ec]2 [Ec]2 z2 | [DB]2 [DB]2 z2 | A2 G2 A2 | %19
w: ||||||
 B4 z2 | E2 E2 E2 | [EG]2 [DF]2 [CE]2 | [B,D]2 [DG]2 [DB]2 | A6 | B2 B2 F,2 | [Gc]2 [Gc]2 ^D,2 | %26
w: |||||||
 [Gd]2 [Gd]2 [=Fd]2 | [Ee]6 | [G,EG]2 [G,DF]2 [G,CE]2 | [G,B,D]2 [B,DG]4 | B2 G2 A2 | [B,DG]6 |] %32
w: ||||||
V:2
 [G,,G,]2 [G,,G,]2 [G,,G,]2 | [C,G,]2 [C,G,]2 [C,G,]2 | [D,G,]4 [D,F,]2 | [G,,G,]6 | %4
 [G,B,]2 [G,C]2 [G,D]2 | [C,G,]2 [C,G,]2 [C,G,]2 | [B,,G,]4 [G,,G,]2 | [D,F,]6 | %8
 [D,A,]2 [D,A,]2 [D,A,]2 | [D,A,]2 [D,G,D]2 [D,F,D]2 | [G,D]4 [G,A,D]2 | [G,B,D]6 | B,,2 B,,2 C,2 | %13
 G,,2 G,,2 [G,,G,]2 | [D,G,]4 [D,F,]2 | [G,,G,]4 z2 | [C,G,]2 [C,G,]2 z2 | [G,,G,]2 [G,,G,]2 z2 | %18
 [D,F,C]2 [D,G,B,]2 [D,F,C]2 | [G,D]4 z2 | [C,G,C]2 [C,G,C]2 [C,G,C]2 | [C,G,]2 [C,G,]2 [C,G,]2 | %22
 [G,,G,]2 [B,,G,]2 [G,,G,]2 | [D,F,D]6 | [G,D]2 [G,D]2 z2 | [E,G,]2 [E,G,]2 z2 | %26
 [D,B,]2 [D,B,]2 [B,,G,]2 | [C,G,]6 | C,2 C,2 C,2 | G,,2 G,,4 | [D,G,D]2 [D,B,D]2 [D,CD]2 | %31
 [G,,G,]6 |] %32

